source/img/bem.svg

<svg width="59" height="50" viewBox="0 0 59 50" version="1.1" xmlns="http://www.w3.org/2000/svg" xmlns:xlink="http://www.w3.org/1999/xlink">
<title>Group</title>
<desc>Created using Figma</desc>
<g id="Canvas" transform="translate(-44 -782)">
<g id="Group">
<g id="&#208;&#177;&#209;&#141;&#208;&#188;">
<g id="Vector">
<use xlink:href="#path0_fill" transform="translate(44 783)" fill="#17A1E6"/>
</g>
</g>
<g id="&#208;&#145;&#208;&#173;&#208;&#156;">
<use xlink:href="#path1_fill" transform="translate(81 779)" fill="#17A1E6"/>
</g>
</g>
</g>
<defs>
<path id="path0_fill" d="M 0 7.58333L 13.7937 7.58333L 13.7937 11.6667L 0 11.6667L 0 7.58333ZM 0 0L 13.7937 0L 13.7937 4.08333L 0 4.08333L 0 0ZM 24.7475 15.1083L 0 15.1083L 0 19.1917L 23.8202 19.1917C 26.4283 19.1917 32.5138 19.25 34.7741 22.925L 34.7741 20.65C 33.6729 17.0333 30.4273 15.1083 24.7475 15.1083ZM 24.8055 22.6917L 0 22.6917L 0 26.775L 23.8202 26.775C 29.6159 26.775 33.2672 27.0083 34.7741 27.825L 34.7741 26.0167C 33.6149 23.1583 28.7466 22.6917 24.8055 22.6917ZM 24.7475 41.9417L 0 41.9417L 0 37.8583L 23.8202 37.8583C 26.4283 37.8583 32.5138 37.8 34.7741 34.125L 34.7741 36.4C 33.6729 40.0167 30.4273 41.9417 24.7475 41.9417ZM 24.8055 34.3583L 0 34.3583L 0 30.275L 23.8202 30.275C 29.6159 30.275 33.2672 30.0417 34.7741 29.225L 34.7741 31.0333C 33.6149 33.8917 28.7466 34.3583 24.8055 34.3583ZM 40.8016 49L 59 49L 59 46.4917L 41.3232 46.4917C 39.7584 46.4917 36.0491 46.4333 34.7161 44.275L 34.7161 45.675C 35.3536 47.8333 37.3242 49 40.8016 49ZM 40.7436 44.3917L 58.942 44.3917L 58.942 41.8833L 41.3232 41.8833C 37.7878 41.8833 35.5855 41.7667 34.7161 41.2417L 34.7161 42.35C 35.4116 44.1 38.3674 44.3917 40.7436 44.3917Z"/>
<path id="path1_fill" d="M 2.41211 6.60059L 3.00781 6.60059C 3.9388 6.60059 4.6582 6.78939 5.16602 7.16699C 5.67383 7.5446 5.92773 8.07845 5.92773 8.76855C 5.92773 10.2562 4.94466 11 2.97852 11L 0.898438 11L 0.898438 3.86133L 5.41016 3.86133L 5.41016 5.11133L 2.41211 5.11133L 2.41211 6.60059ZM 2.41211 9.75977L 2.91992 9.75977C 3.43099 9.75977 3.80534 9.67839 4.04297 9.51562C 4.2806 9.34961 4.39941 9.10059 4.39941 8.76855C 4.39941 8.43978 4.27897 8.20378 4.03809 8.06055C 3.7972 7.91406 3.38379 7.84082 2.79785 7.84082L 2.41211 7.84082L 2.41211 9.75977ZM 8.68691 5.01855C 8.36465 5.01855 8.04727 5.06413 7.73477 5.15527C 7.42552 5.24642 7.11953 5.35547 6.8168 5.48242L 6.33828 4.26172C 7.09349 3.92643 7.88613 3.75879 8.71621 3.75879C 9.77415 3.75879 10.5912 4.08431 11.1674 4.73535C 11.7468 5.38314 12.0365 6.28483 12.0365 7.44043C 12.0365 8.61882 11.7387 9.52376 11.143 10.1553C 10.5505 10.7835 9.6944 11.0977 8.57461 11.0977C 7.80312 11.0977 7.1 10.9756 6.46523 10.7314L 6.46523 9.46191C 7.25625 9.71257 7.93008 9.83789 8.48672 9.83789C 9.10846 9.83789 9.5821 9.68652 9.90762 9.38379C 10.2364 9.08105 10.4154 8.62695 10.4447 8.02148L 7.34902 8.02148L 7.34902 6.78125L 10.435 6.78125C 10.4154 6.22786 10.2494 5.79655 9.93691 5.4873C 9.62441 5.1748 9.20775 5.01855 8.68691 5.01855ZM 16.1385 11L 14.4197 5.39941L 14.3758 5.39941C 14.4376 6.53874 14.4686 7.29883 14.4686 7.67969L 14.4686 11L 13.116 11L 13.116 3.86133L 15.1766 3.86133L 16.866 9.32031L 16.8953 9.32031L 18.6873 3.86133L 20.7479 3.86133L 20.7479 11L 19.3367 11L 19.3367 7.62109C 19.3367 7.46159 19.3383 7.27767 19.3416 7.06934C 19.3481 6.861 19.3709 6.30762 19.41 5.40918L 19.366 5.40918L 17.5252 11L 16.1385 11Z"/>
</defs>
</svg>

<svg width="59" height="50" xmlns="http://www.w3.org/2000/svg" xmlns:xlink="http://www.w3.org/1999/xlink"><use xlink:href="#path0_fill" transform="translate(0 1)" fill="#17A1E6"/><use xlink:href="#path1_fill" transform="translate(37 -3)" fill="#17A1E6"/><defs><path id="path0_fill" d="M0 7.583h13.794v4.084H0V7.583zM0 0h13.794v4.083H0V0zm24.747 15.108H0v4.084h23.82c2.608 0 8.694.058 10.954 3.733V20.65c-1.101-3.617-4.347-5.542-10.027-5.542zm.058 7.584H0v4.083h23.82c5.796 0 9.447.233 10.954 1.05v-1.808c-1.16-2.859-6.027-3.325-9.969-3.325zm-.058 19.25H0v-4.084h23.82c2.608 0 8.694-.058 10.954-3.733V36.4c-1.101 3.617-4.347 5.542-10.027 5.542zm.058-7.584H0v-4.083h23.82c5.796 0 9.447-.233 10.954-1.05v1.808c-1.16 2.859-6.027 3.325-9.969 3.325zM40.802 49H59v-2.508H41.323c-1.565 0-5.274-.059-6.607-2.217v1.4C35.354 47.833 37.324 49 40.802 49zm-.058-4.608h18.198v-2.509H41.323c-3.535 0-5.737-.116-6.607-.641v1.108c.696 1.75 3.651 2.042 6.028 2.042z"/><path id="path1_fill" d="M2.412 6.6h.596c.93 0 1.65.19 2.158.567.508.378.762.911.762 1.602 0 1.487-.983 2.231-2.95 2.231H.899V3.861H5.41v1.25H2.412v1.49zm0 3.16h.508c.511 0 .885-.082 1.123-.244.238-.166.356-.415.356-.747 0-.33-.12-.565-.36-.708-.242-.147-.655-.22-1.241-.22h-.386V9.76zm6.275-4.741c-.322 0-.64.045-.952.136-.31.091-.615.2-.918.327l-.479-1.22a5.797 5.797 0 0 1 2.378-.503c1.058 0 1.875.325 2.451.976.58.648.87 1.55.87 2.705 0 1.179-.298 2.084-.894 2.715-.593.629-1.449.943-2.568.943-.772 0-1.475-.122-2.11-.367v-1.27c.791.252 1.465.377 2.022.377.621 0 1.095-.151 1.42-.454.33-.303.508-.757.538-1.363H7.349v-1.24h3.086c-.02-.553-.186-.984-.498-1.294-.313-.312-.73-.468-1.25-.468zM16.139 11l-1.72-5.6h-.043c.062 1.139.093 1.899.093 2.28V11h-1.353V3.861h2.06l1.69 5.46h.03l1.791-5.46h2.06V11h-1.41V7.621c0-.16.001-.343.005-.552.006-.208.029-.761.068-1.66h-.044L17.526 11h-1.387z"/></defs></svg>
